public/tools-icons/tailwind-css.svg

<svg xmlns="http://www.w3.org/2000/svg" width="24" height="24" fill="none"><g clip-path="url(#clip0_140_63)"><path fill="#26265a" d="M12.001 4.80005C8.80098 4.80005 6.80098 6.40005 6.00098 9.60005C7.20098 8.00005 8.60098 7.40005 10.201 7.80005C11.114 8.02805 11.766 8.69005 12.489 9.42405C13.666 10.618 15.027 12 18.001 12C21.201 12 23.201 10.4 24.001 7.20005C22.801 8.80005 21.401 9.40005 19.801 9.00005C18.888 8.77205 18.236 8.11005 17.513 7.37605C16.337 6.18205 14.976 4.80005 12.001 4.80005ZM6.00098 12C2.80098 12 0.800977 13.6 0.000976562 16.8C1.20098 15.2 2.60098 14.6 4.20098 15C5.11398 15.228 5.76598 15.89 6.48898 16.624C7.66598 17.818 9.02698 19.2 12.001 19.2C15.201 19.2 17.201 17.6 18.001 14.4C16.801 16 15.401 16.6 13.801 16.2C12.888 15.972 12.236 15.31 11.513 14.576C10.337 13.382 8.97598 12 6.00098 12Z"/></g><defs><clipPath id="clip0_140_63"><path fill="#fff" d="M0 0H24V24H0z"/></clipPath></defs></svg>

<svg xmlns="http://www.w3.org/2000/svg" width="24" height="24" fill="none" viewBox="0 0 24 24"><g clip-path="url(#a)"><path fill="#26265a" d="M12.001 4.8q-4.8 0-6 4.8 1.8-2.4 4.2-1.8c.913.228 1.565.89 2.288 1.624C13.666 10.618 15.027 12 18.001 12q4.8 0 6-4.8-1.8 2.4-4.2 1.8c-.913-.228-1.565-.89-2.288-1.624C16.337 6.182 14.976 4.8 12.001 4.8m-6 7.2q-4.8 0-6 4.8 1.8-2.4 4.2-1.8c.913.228 1.565.89 2.288 1.624 1.177 1.194 2.538 2.576 5.512 2.576q4.8 0 6-4.8-1.8 2.4-4.2 1.8c-.913-.228-1.565-.89-2.288-1.624C10.337 13.382 8.976 12 6.001 12"/></g><defs><clipPath id="a"><path fill="#fff" d="M0 0h24v24H0z"/></clipPath></defs></svg>
